src/components/icon/assets/logo_kubernetes.svg

<?xml version="1.0" encoding="UTF-8"?>
<svg width="32px" height="32px" viewBox="0 0 32 32" version="1.1" xmlns="http://www.w3.org/2000/svg" xmlns:xlink="http://www.w3.org/1999/xlink">
    <!-- Generator: Sketch 48.2 (47327) - http://www.bohemiancoding.com/sketch -->
    <title>kubernetes</title>
    <desc>Created with Sketch.</desc>
    <defs></defs>
    <g id="Page-1" stroke="none" stroke-width="1" fill="none" fill-rule="evenodd">
        <g id="kubernetes" fill="#326CE5" fill-rule="nonzero">
            <path d="M15.8890657,0.0027324982 C16.2448993,-0.0152309691 16.59959,0.0555944179 16.9205857,0.208708566 L28.0467737,5.51294745 C28.6300452,5.79105812 29.0536946,6.31703319 29.1978077,6.94199521 L31.9466306,18.8630377 C32.0907657,19.4882891 31.9394121,20.1445063 31.5354454,20.6457961 L23.8381721,30.2059267 C23.4341361,30.7064332 22.8220163,30.9976298 22.1749351,30.9971589 L9.82657381,31 C9.17925051,31.0001259 8.56708748,30.7083859 8.16333676,30.2073472 L0.463217932,20.6486371 C0.420169176,20.5947497 0.379808653,20.5388088 0.342281107,20.4810152 C0.0295986991,20.0033876 -0.074584366,19.4207873 0.0534555113,18.8658788 L2.79801006,6.94483626 C2.94212321,6.31987424 3.36577259,5.79389917 3.94904408,5.5157885 L15.0738093,0.208708566 C15.3290033,0.086988532 15.6061756,0.0169604382 15.8890657,0.0027324982 Z M15.9992991,4.05961986 C15.6315619,4.05965714 15.3333915,4.39035936 15.3334352,4.79829266 C15.3334356,4.80455342 15.3347191,4.81053599 15.3348557,4.81675948 C15.3343139,4.87218767 15.3316322,4.93896369 15.3334352,4.98722243 C15.342205,5.22250676 15.3935746,5.40258337 15.4244935,5.61935588 C15.4805071,6.08331785 15.5274427,6.4679141 15.4984784,6.82538127 C15.4703099,6.96017883 15.3708656,7.08345809 15.2822149,7.16914823 L15.2665642,7.4504121 C14.866963,7.48346691 14.4646888,7.54399581 14.0628871,7.6350803 C12.3339351,8.0270169 10.8453379,8.91619212 9.71200697,10.1167368 C9.63846736,10.0666466 9.50981061,9.97449614 9.47155382,9.94627384 C9.35266945,9.96230281 9.23251618,9.99892598 9.07601927,9.90791967 C8.77803502,9.70765388 8.50663754,9.43121752 8.17824118,9.09822064 C8.02776823,8.93893142 7.91880147,8.78725031 7.74002304,8.6337091 C7.69942378,8.59884056 7.63746497,8.55168005 7.59205328,8.51580556 C7.45228422,8.40454689 7.28743134,8.34652357 7.12822498,8.34108103 C6.92353089,8.33408341 6.72647842,8.4139869 6.59752573,8.57546759 C6.36827686,8.86254448 6.44167396,9.30132384 6.76114614,9.55562957 C6.76438782,9.55820697 6.76783984,9.5602107 6.77110565,9.56273219 C6.81500577,9.59826213 6.86876387,9.64378755 6.90911591,9.67353311 C7.09882999,9.81338319 7.27212899,9.88497308 7.46115695,9.9959922 C7.85940049,10.2415411 8.18954926,10.4451443 8.45141613,10.6906287 C8.55367553,10.79946 8.57154846,10.9912308 8.58515803,11.0741704 L8.79857596,11.2645207 C7.65609368,12.9811362 7.12734354,15.1015036 7.43981743,17.2619756 L7.16095134,17.3429455 C7.08745362,17.4377051 6.9835966,17.5868093 6.87496904,17.631312 C6.53235621,17.7390541 6.14676476,17.7786188 5.68125143,17.8273444 C5.46269736,17.8454884 5.27412151,17.8346606 5.04242043,17.8784832 C4.99142414,17.8881283 4.92036951,17.9066105 4.86457216,17.9196785 C4.86263262,17.9200876 4.86082056,17.9206603 4.85888102,17.9210967 C4.85583967,17.9218013 4.85184403,17.9232741 4.84892151,17.9239378 C4.4564538,18.0186147 4.20433153,18.3787784 4.28549818,18.7336368 C4.36668396,19.0885784 4.75003856,19.3044272 5.14486104,19.2194562 C5.14771117,19.2188062 5.15184977,19.2186971 5.15482054,19.2180379 C5.15927785,19.2170197 5.16320201,19.2148605 5.16762562,19.2137786 C5.22266354,19.2017162 5.29163657,19.1882956 5.33978275,19.1754245 C5.5675806,19.1145292 5.73256006,19.0250552 5.93735294,18.94672 C6.37793587,18.78895 6.74284251,18.6571503 7.09834647,18.6057941 C7.24682525,18.5941835 7.40326025,18.6972604 7.48107595,18.740744 L7.77132433,18.6910256 C8.43924528,20.7585285 9.8389928,22.42962 11.6114242,23.4781935 L11.4904874,23.7679805 C11.5340779,23.8805052 11.5821563,24.0327527 11.5496853,24.1438773 C11.4204426,24.4784938 11.1990667,24.8316825 10.9469831,25.2254388 C10.8249263,25.4073532 10.7000088,25.5485279 10.5898638,25.756715 C10.5635069,25.8065306 10.5299392,25.8830539 10.5044966,25.9357011 C10.3333598,26.3012809 10.4588928,26.7223399 10.787631,26.88035 C11.1184345,27.0393523 11.5290492,26.8716523 11.7067509,26.5053315 C11.7070241,26.5048133 11.707921,26.5044314 11.7081714,26.5039132 C11.7083535,26.5035041 11.7079893,26.5028904 11.7081714,26.502495 C11.7334825,26.4505583 11.7693412,26.3822904 11.790693,26.3334525 C11.8850354,26.1176682 11.9164268,25.9327482 11.9827692,25.7240475 C12.1589497,25.2822011 12.255747,24.8185924 12.4982767,24.5297108 C12.5646892,24.4506056 12.6729634,24.4201827 12.7852206,24.3901749 L12.9360359,24.1174341 C14.4812154,24.7095906 16.2107962,24.8684921 17.9385521,24.4768269 C18.3326967,24.3874784 18.7132053,24.2718418 19.0810494,24.1330599 C19.1234362,24.2081241 19.2022084,24.3524207 19.2233281,24.3887543 C19.3374055,24.4258098 19.4619209,24.4449453 19.5633739,24.5947304 C19.7448254,24.9042448 19.8689156,25.2704074 20.0200883,25.7126833 C20.0864416,25.9213804 20.1192335,26.1063086 20.2135872,26.3220883 C20.2350925,26.3712703 20.2707719,26.4404969 20.2961088,26.4925513 C20.4734367,26.8600621 20.8853527,27.0283354 21.2166515,26.8689903 C21.5453492,26.7108961 21.6710207,26.2898754 21.4997859,25.9243414 C21.4743402,25.8716961 21.4393551,25.7951696 21.412996,25.7453553 C21.30284,25.5371742 21.1779426,25.3974073 21.0558767,25.2154997 C20.8037721,24.8217566 20.5946809,24.4946596 20.4654204,24.1600499 C20.4113723,23.98747 20.474539,23.8801388 20.5166407,23.7679851 C20.4914276,23.7391305 20.4374741,23.5761534 20.4056634,23.4995059 C22.2476547,22.4136269 23.6062976,20.6802173 24.2443405,18.6782454 C24.3304999,18.6917652 24.4802516,18.7182183 24.5288977,18.7279638 C24.6290409,18.6620196 24.7211191,18.5759781 24.9016677,18.5901729 C25.2571739,18.6415104 25.6220701,18.7733515 26.0626612,18.9310988 C26.2674582,19.0094236 26.4324308,19.1003403 26.6602314,19.1612238 C26.7083781,19.1740921 26.7773497,19.1860977 26.8323886,19.1981574 C26.836814,19.1992393 26.8407341,19.201403 26.8451936,19.2024167 C26.8481667,19.2030804 26.852303,19.2031849 26.8551531,19.203835 C27.2499984,19.2887005 27.6334213,19.0729781 27.714516,18.7180156 C27.7955916,18.3631362 27.5435859,18.0028889 27.1510927,17.9083165 C27.0940023,17.8953554 27.0130369,17.873343 26.9575937,17.8628597 C26.7258904,17.8190494 26.5373177,17.8298536 26.3187627,17.8117209 C25.8532471,17.7630194 25.4676634,17.7234124 25.1250451,17.6156885 C24.9853498,17.5615822 24.8859702,17.3956212 24.8376401,17.327322 L24.5687335,17.2491931 C24.7081556,16.2421244 24.6705617,15.1940308 24.4293004,14.1453468 C24.1857927,13.0868987 23.755452,12.1188451 23.1815169,11.2659435 C23.2504959,11.2033363 23.3807612,11.0881661 23.4176994,11.0542853 C23.4284971,10.934999 23.4192201,10.809931 23.5429046,10.6778463 C23.8047583,10.4323483 24.1349335,10.2287796 24.5331638,9.98320975 C24.7221859,9.87218064 24.8969208,9.80061074 25.0866276,9.66075066 C25.1295275,9.62912365 25.1881076,9.579038 25.2331746,9.54284712 C25.552579,9.28845594 25.6261177,8.84970293 25.396795,8.56268514 C25.1674724,8.27566735 24.7230946,8.24863192 24.4036903,8.50302311 C24.3582267,8.53897261 24.296536,8.58586901 24.2557205,8.62092665 C24.0769503,8.77447786 23.9665443,8.92614125 23.8160796,9.0854382 C23.487701,9.41845235 23.2162753,9.69627605 22.9183015,9.89655775 C22.7891803,9.97160963 22.6000545,9.94564108 22.5142279,9.94059401 L22.260972,10.1210006 C20.8168417,8.60908197 18.8506259,7.64244839 16.7334568,7.45467367 C16.7275353,7.36609112 16.7197775,7.20597186 16.7178061,7.15778403 C16.6311318,7.07497767 16.526428,7.00428282 16.5001198,6.82538127 C16.4711556,6.4679141 16.5195139,6.08331785 16.5755275,5.61935588 C16.6064464,5.40258337 16.657816,5.22250676 16.6665858,4.98722243 C16.66858,4.93373661 16.6653793,4.8561246 16.6651653,4.79829266 C16.6651216,4.39035936 16.3670386,4.05958259 15.9993014,4.05961986 Z M15.1655464,9.21612419 L14.9677791,12.7035121 L14.9535513,12.7106147 C14.9402868,13.0226006 14.6831099,13.2717219 14.3673634,13.2717219 C14.2380237,13.2717219 14.1186403,13.2302522 14.0216263,13.1595005 L14.0159352,13.1623415 L11.1518666,11.1352529 C12.0321114,10.2710671 13.1580138,9.63243381 14.4555761,9.3382893 C14.6926004,9.28455802 14.9295192,9.24468923 15.1655464,9.21612419 Z M16.8344746,9.21612419 C18.3493877,9.40214791 19.75039,10.0870226 20.8239671,11.1366735 L17.9783947,13.1509774 L17.9684352,13.146718 C17.7158645,13.3308949 17.3600095,13.2851972 17.1631382,13.0387582 C17.0824915,12.9378005 17.0401767,12.8190933 17.0350875,12.6992528 L17.0322419,12.6978345 L16.8344746,9.21612419 Z M10.1132327,12.437874 L12.7283137,14.7732165 L12.7254681,14.7874217 C12.9615081,14.9922941 12.9963156,15.3478102 12.799453,15.5942797 C12.7188117,15.6952415 12.6108676,15.762958 12.4949767,15.7945736 L12.4921312,15.8059378 L9.14004692,16.7718946 C8.96943642,15.21431 9.33712216,13.700214 10.1132327,12.437874 Z M21.8668693,12.4392922 C22.2554197,13.068076 22.5496496,13.7703643 22.7248094,14.531725 C22.8978685,15.2839566 22.9413001,16.0348432 22.8699336,16.7605281 L19.5007759,15.7917303 L19.4979303,15.7775251 C19.1962314,15.695201 19.0108171,15.3887959 19.081054,15.081468 C19.1098298,14.95557 19.1767663,14.8490638 19.267439,14.7703731 L19.2660185,14.7632705 L21.8668716,12.4392922 Z M15.4629087,14.9536208 L16.5342667,14.9536208 L17.2001307,15.7846277 L16.9611026,16.8216107 L15.9992991,17.2832812 L15.0346501,16.8201901 L14.795622,15.7832072 L15.4629087,14.9536208 Z M18.8975146,17.7975111 C18.9430424,17.7952155 18.9883716,17.7993112 19.0326793,17.8074547 L19.0383704,17.8003521 L22.5057003,18.3856083 C21.9982551,19.8090012 21.0272406,21.0421111 19.7298445,21.8673141 L18.3838888,18.6214153 L18.3881548,18.6157332 C18.2645154,18.3289014 18.3882459,17.9925407 18.6727121,17.8557526 C18.7455428,17.8207322 18.8216329,17.8013403 18.8975123,17.7975111 Z M13.0740507,17.8117163 C13.3386543,17.815421 13.5759924,17.9987824 13.637474,18.2677047 C13.6662571,18.3936009 13.6522483,18.5183421 13.60475,18.628518 L13.6147095,18.6413027 L12.2829816,21.8545293 C11.0378884,21.0568264 10.0461673,19.8624297 9.51566247,18.3969747 L12.9531139,17.8145596 L12.958805,17.8216623 C12.9972549,17.8145978 13.0362501,17.811189 13.0740507,17.8117186 Z M15.9779573,19.2194585 C16.0701288,19.2160765 16.1636548,19.2349583 16.2525551,19.2777 C16.3690874,19.3337268 16.4591085,19.421943 16.5157705,19.5277123 L16.5285756,19.5277123 L18.2231139,22.5846813 C18.0031949,22.6582863 17.7771062,22.7211916 17.5458677,22.773611 C16.2499016,23.0673937 14.9580532,22.9783789 13.7882894,22.5804197 L15.4785594,19.5291328 L15.4814049,19.5291328 C15.5828289,19.3398321 15.7751805,19.2268966 15.9779573,19.2194585 Z" id="Combined-Shape"></path>
        </g>
    </g>
</svg>

<svg width="32" height="32" xmlns="http://www.w3.org/2000/svg"><path d="M15.89.003c.355-.018.71.053 1.03.206l11.127 5.304a2.11 2.11 0 0 1 1.15 1.429l2.75 11.921a2.09 2.09 0 0 1-.412 1.783l-7.697 9.56c-.404.5-1.016.792-1.663.791L9.827 31c-.648 0-1.26-.292-1.664-.793l-7.7-9.558a2.107 2.107 0 0 1-.41-1.783L2.798 6.945a2.11 2.11 0 0 1 1.151-1.43L15.074.21c.255-.122.532-.192.815-.206zM16 4.06c-.368 0-.667.33-.667.738l.002.019c0 .055-.003.122-.002.17.01.236.06.416.091.632.057.464.103.849.074 1.206-.028.135-.127.258-.216.344l-.015.281a8.569 8.569 0 0 0-5.555 2.666c-.074-.05-.202-.142-.24-.17-.12.016-.24.053-.396-.038-.298-.2-.57-.477-.898-.81-.15-.16-.26-.31-.438-.464-.04-.035-.103-.082-.148-.118a.793.793 0 0 0-.464-.175.642.642 0 0 0-.53.234c-.23.288-.156.726.163.98l.01.008c.044.035.098.08.138.11.19.14.363.212.552.323.398.246.729.45.99.695.103.108.12.3.134.383l.214.19a8.592 8.592 0 0 0-1.36 5.998l-.278.08c-.074.096-.177.245-.286.29-.343.107-.728.147-1.194.195-.218.018-.407.008-.639.051-.05.01-.122.029-.177.042l-.006.001-.01.003c-.393.095-.645.455-.564.81.082.355.465.57.86.485l.01-.001.013-.004c.055-.012.124-.026.172-.039.228-.06.393-.15.597-.228.44-.158.806-.29 1.161-.341.149-.012.305.091.383.135l.29-.05a8.654 8.654 0 0 0 3.84 4.787l-.12.29c.043.113.091.265.059.376-.13.334-.35.688-.603 1.081-.122.182-.247.324-.357.532-.026.05-.06.126-.086.179-.17.365-.045.786.284.944.33.16.741-.008.919-.375l.001-.001v-.002c.025-.051.061-.12.083-.169.094-.215.125-.4.192-.609.176-.442.273-.905.515-1.194.067-.08.175-.11.287-.14l.151-.273a8.616 8.616 0 0 0 6.145.016l.142.256c.114.037.239.056.34.206.182.31.306.675.457 1.118.066.208.1.393.194.61.021.048.057.117.082.17.177.367.59.535.92.376.33-.158.455-.58.284-.945-.026-.052-.06-.129-.087-.179-.11-.208-.235-.348-.357-.53-.252-.393-.461-.72-.59-1.055-.055-.173.009-.28.05-.392-.025-.029-.079-.192-.11-.268a8.654 8.654 0 0 0 3.838-4.822c.086.014.236.04.285.05.1-.066.192-.152.373-.138.355.052.72.183 1.16.341.205.078.37.17.598.23.048.013.117.025.172.037l.013.004.01.002c.395.085.778-.131.86-.486.08-.355-.171-.715-.564-.81-.057-.013-.138-.035-.193-.045-.232-.044-.42-.033-.64-.051-.465-.049-.85-.089-1.193-.196-.14-.054-.239-.22-.287-.289l-.27-.078a8.572 8.572 0 0 0-.139-3.104 8.599 8.599 0 0 0-1.247-2.88c.068-.062.199-.177.236-.21.01-.12.001-.245.125-.377.262-.246.592-.45.99-.695.19-.11.364-.182.554-.322.043-.032.101-.082.146-.118.32-.255.393-.693.164-.98-.23-.287-.674-.314-.993-.06-.046.036-.107.083-.148.118-.179.153-.29.305-.44.464-.328.333-.6.611-.898.812-.129.075-.318.049-.404.044l-.253.18a8.732 8.732 0 0 0-5.528-2.666 16.036 16.036 0 0 1-.015-.297c-.087-.083-.192-.154-.218-.333-.029-.357.02-.742.076-1.206.03-.216.082-.396.09-.632.003-.053 0-.13 0-.189 0-.408-.299-.738-.667-.738zm-.834 5.156l-.198 3.488-.014.007a.587.587 0 0 1-.932.449l-.006.002-2.864-2.027a6.862 6.862 0 0 1 4.014-1.919zm1.668 0a6.922 6.922 0 0 1 3.99 1.92l-2.846 2.015-.01-.004a.588.588 0 0 1-.933-.448l-.003-.001-.198-3.482zm-6.72 3.222l2.614 2.335-.003.014a.585.585 0 0 1-.23 1.008l-.003.01-3.352.967a6.838 6.838 0 0 1 .973-4.334zm11.753.001c.388.63.683 1.331.858 2.093a6.91 6.91 0 0 1 .145 2.229l-3.37-.97-.002-.013a.586.586 0 0 1-.23-1.008l-.002-.007 2.6-2.324zm-6.404 2.515h1.071l.666.83-.239 1.038-.962.461-.964-.463-.24-1.037.668-.83zm3.435 2.844a.585.585 0 0 1 .135.01l.005-.008 3.468.586a6.858 6.858 0 0 1-2.776 3.481l-1.346-3.246.004-.005a.586.586 0 0 1 .51-.818zm-5.824.014a.587.587 0 0 1 .53.817l.01.012-1.331 3.214a6.886 6.886 0 0 1-2.767-3.458l3.437-.582.006.007a.595.595 0 0 1 .115-.01zm2.904 1.407a.582.582 0 0 1 .275.059.583.583 0 0 1 .263.25h.013l1.694 3.057c-.22.073-.446.136-.677.189a6.896 6.896 0 0 1-3.758-.194l1.69-3.05h.003a.588.588 0 0 1 .497-.31z" fill="#326CE5" fill-rule="nonzero"/></svg>
